icons/svg/seamark_small/power_line.svg

<?xml version="1.0" encoding="UTF-8" standalone="no"?>
<!-- Created with Inkscape (http://www.inkscape.org/) -->

<svg
   xmlns:dc="http://purl.org/dc/elements/1.1/"
   xmlns:cc="http://creativecommons.org/ns#"
   xmlns:rdf="http://www.w3.org/1999/02/22-rdf-syntax-ns#"
   xmlns:svg="http://www.w3.org/2000/svg"
   xmlns="http://www.w3.org/2000/svg"
   xmlns:sodipodi="http://sodipodi.sourceforge.net/DTD/sodipodi-0.dtd"
   xmlns:inkscape="http://www.inkscape.org/namespaces/inkscape"
   version="1.0"
   width="580"
   height="580"
   id="svg2"
   sodipodi:version="0.32"
   inkscape:version="0.48.4 r9939"
   sodipodi:docname="distance_mark.svg"
   inkscape:output_extension="org.inkscape.output.svg.inkscape">
  <metadata
     id="metadata2975">
    <rdf:RDF>
      <cc:Work
         rdf:about="">
        <dc:format>image/svg+xml</dc:format>
        <dc:type
           rdf:resource="http://purl.org/dc/dcmitype/StillImage" />
        <cc:license
           rdf:resource="http://web.resource.org/cc/PublicDomain" />
        <dc:language>en</dc:language>
        <dc:title></dc:title>
      </cc:Work>
    </rdf:RDF>
  </metadata>
  <sodipodi:namedview
     inkscape:window-height="739"
     inkscape:window-width="1332"
     inkscape:pageshadow="2"
     inkscape:pageopacity="0.0"
     guidetolerance="10.0"
     gridtolerance="10.0"
     objecttolerance="10.0"
     borderopacity="1.0"
     bordercolor="#666666"
     pagecolor="#ffffff"
     id="base"
     inkscape:zoom="0.65172414"
     inkscape:cx="162.15434"
     inkscape:cy="312.54383"
     inkscape:window-x="34"
     inkscape:window-y="1024"
     inkscape:current-layer="svg2"
     showgrid="false"
     inkscape:window-maximized="1" />
  <defs
     id="defs4">
    <inkscape:perspective
       sodipodi:type="inkscape:persp3d"
       inkscape:vp_x="0 : 290 : 1"
       inkscape:vp_y="0 : 1000 : 0"
       inkscape:vp_z="580 : 290 : 1"
       inkscape:persp3d-origin="290 : 193.33333 : 1"
       id="perspective10" />
  </defs>
  <path
     d="m 264.71015,293.04728 0,-95.44036 c 0,-2.85416 1.45635,-5.51569 3.85848,-7.04734 2.41048,-1.54009 5.4236,-1.74091 8.01822,-0.5433 69.45326,47.03 191.27735,131.97605 191.27735,131.97605 l -144.56572,-35.18822 0,95.58269 c 0,2.96295 -1.57351,5.71664 -4.12629,7.21475 -2.56115,1.50656 -5.71655,1.5401 -8.31117,0.10398 C 154.04824,278.58204 112.1358,248.64892 112.1358,248.64892 c 0,0 29.70385,8.07376 152.57436,44.40304 z"
     id="path3"
     inkscape:connector-curvature="0"
     sodipodi:nodetypes="csccccscccc" />
</svg>

<svg width="580" height="580" viewBox="0 0 580 580" fill="none" xmlns="http://www.w3.org/2000/svg">
<path d="M264.71 293.047V197.607C264.71 194.753 266.166 192.091 268.569 190.56C270.979 189.02 273.992 188.819 276.587 190.016C346.04 237.046 467.864 321.992 467.864 321.992L323.298 286.804V382.387C323.298 385.35 321.725 388.103 319.172 389.602C316.611 391.108 313.456 391.142 310.861 389.706C154.048 278.582 112.136 248.649 112.136 248.649C112.136 248.649 141.84 256.723 264.71 293.052L264.71 293.047Z" fill="black"/>
</svg>
